dist/img/help/Group 75.svg

<svg width="80" height="80" viewBox="0 0 80 80" fill="none" xmlns="http://www.w3.org/2000/svg">
<circle cx="40" cy="40" r="40" fill="white"/>
<path d="M40.4297 59C39.8297 59 39.313 58.8 38.8797 58.4C38.4797 57.9667 38.2797 57.45 38.2797 56.85V25L33.7297 26.7C33.2964 26.9 32.8964 27 32.5297 27C31.8964 27 31.3797 26.8 30.9797 26.4C30.5797 26 30.3797 25.5 30.3797 24.9C30.3797 24.4333 30.4797 24.0167 30.6797 23.65C30.913 23.2833 31.2797 23.0167 31.7797 22.85L39.4797 20.15C39.6464 20.0833 39.813 20.0333 39.9797 20C40.1797 19.9333 40.3464 19.9 40.4797 19.9C41.113 19.9 41.613 20.1167 41.9797 20.55C42.3797 20.95 42.5797 21.4667 42.5797 22.1V56.85C42.5797 57.45 42.363 57.9667 41.9297 58.4C41.5297 58.8 41.0297 59 40.4297 59Z" fill="#FF8A00"/>
</svg>

<svg width="80" height="80" fill="none" xmlns="http://www.w3.org/2000/svg"><circle cx="40" cy="40" r="40" fill="#fff"/><path d="M40.43 59c-.6 0-1.117-.2-1.55-.6-.4-.433-.6-.95-.6-1.55V25l-4.55 1.7c-.434.2-.834.3-1.2.3-.634 0-1.15-.2-1.55-.6-.4-.4-.6-.9-.6-1.5 0-.467.1-.883.3-1.25.233-.367.6-.633 1.1-.8l7.7-2.7c.166-.067.333-.117.5-.15.2-.067.366-.1.5-.1.633 0 1.133.217 1.5.65.4.4.6.917.6 1.55v34.75c0 .6-.217 1.117-.65 1.55-.4.4-.9.6-1.5.6Z" fill="#FF8A00"/></svg>
